icons/plexis/48/kongdash.svg

<svg viewBox="0 0 48 48" xmlns="http://www.w3.org/2000/svg" xmlns:xlink="http://www.w3.org/1999/xlink">
  <linearGradient id="a" gradientTransform="matrix(0 -1 1 0 -.0000015 47.999998)" gradientUnits="userSpaceOnUse" x1="1" x2="47">
    <stop offset="0" stop-color="#218de1"/>
    <stop offset="1" stop-color="#3396e3"/>
  </linearGradient>
  <path d="m47 24c0 22.703-.297 23-23 23-22.703 0-23-.297-23-23 0-22.703.297-23 23-23 22.703 0 23 .297 23 23z" fill="url(#a)"/>
  <path d="m25 10a15 15 0 0 0-15 15 15 15 0 0 0  15 15 15 15 0 0 0  15-15 15 15 0 0 0-15-15m0 2a13 13 0 0 1 6.898 2h-1.898l-8 10v-10h-3.92a13 13 0 0 1 6.92-2m-7 2.05v21.888a13 13 0 0 1-6-10.938 13 13 0 0 1  6-10.95m15.83 1.434a13 13 0 0 1 4.17 9.516 13 13 0 0 1-3.65 9.02l-6.932-10.416 6.412-8.124m-8.83 11.27l6 9.25h.918a13 13 0 0 1-6.918 2 13 13 0 0 1-6.9-2h3.9v-6z" opacity=".1"/>
  <path d="m24 9a15 15 0 0 0-15 15 15 15 0 0 0  15 15 15 15 0 0 0  15-15 15 15 0 0 0-15-15m0 2a13 13 0 0 1 13 13 13 13 0 0 1-13 13 13 13 0 0 1-13-13 13 13 0 0 1  13-13" fill="#f9f9f9"/>
  <path d="m17 13v22h4v-6l3-3.25 6 9.25h3l1-1-7.582-11.396 7.582-9.604h-5l-8 10v-10" fill="#f9f9f9"/>
</svg>

<svg xmlns="http://www.w3.org/2000/svg" viewBox="0 0 48 48">
 <defs>
  <linearGradient id="linearGradient3764" x1="1" x2="47" gradientUnits="userSpaceOnUse" gradientTransform="matrix(0,-1,1,0,-1.5e-6,47.999998)">
   <stop style="stop-color:#218de1;stop-opacity:1"/>
   <stop offset="1" style="stop-color:#3396e3;stop-opacity:1"/>
  </linearGradient>
 </defs>
 <g>
  
  
  
 </g>
 <g>
  <path d="m 47,24 C 47,46.703 46.703,47 24,47 1.297,47 1,46.703 1,24 1,1.297 1.297,1 24,1 46.703,1 47,1.297 47,24 z" style="fill:url(#linearGradient3764);fill-opacity:1"/>
 </g>
 <g>
  
 </g>
 <path d="M 25 10 A 15 15 0 0 0 10 25 15 15 0 0 0 25 40 15 15 0 0 0 40 25 15 15 0 0 0 25 10 m 0 2 a 13 13 0 0 1 6.898 2 L 30 14 22 24 22 14 18.08 14 A 13 13 0 0 1 25 12 M 18 14.05 18 35.938 A 13 13 0 0 1 12 25 13 13 0 0 1 18 14.05 m 15.83 1.434 A 13 13 0 0 1 38 25 13 13 0 0 1 34.35 34.02 L 27.418 23.604 33.83 15.48 M 25 26.75 31 36 31.918 36 A 13 13 0 0 1 25 38 13 13 0 0 1 18.1 36 L 22 36 l 0 -6 3 -3.25 z" style="fill:#000;opacity:0.1;fill-opacity:1;stroke:none"/>
 <path d="M 24 9 A 15 15 0 0 0 9 24 15 15 0 0 0 24 39 15 15 0 0 0 39 24 15 15 0 0 0 24 9 m 0 2 A 13 13 0 0 1 37 24 13 13 0 0 1 24 37 13 13 0 0 1 11 24 13 13 0 0 1 24 11" style="fill:#f9f9f9;opacity:1;fill-opacity:1;stroke:none"/>
 <path d="m 17 13 0 22 4 0 0 -6 3 -3.25 6 9.25 3 0 1 -1 l -7.582 -11.396 7.582 -9.604 -5 0 -8 10 0 -10" style="fill:#f9f9f9;opacity:1;fill-opacity:1;stroke:none"/>
</svg>
